svgs/sharp-regular/colon.svg

<svg xmlns="http://www.w3.org/2000/svg" viewBox="0 0 192 512"><!--! Font Awesome Pro 6.6.0 by @fontawesome - https://fontawesome.com License - https://fontawesome.com/license (Commercial License) Copyright 2024 Fonticons, Inc. --><path d="M72 112l0 48 48 0 0-48-48 0zM24 64l48 0 48 0 48 0 0 48 0 48 0 48-48 0-48 0-48 0 0-48 0-48 0-48zM72 352l0 48 48 0 0-48-48 0zM24 304l48 0 48 0 48 0 0 48 0 48 0 48-48 0-48 0-48 0 0-48 0-48 0-48z"/></svg>

<svg xmlns="http://www.w3.org/2000/svg" viewBox="0 0 192 512"><!--! Font Awesome Pro 6.4.0 by @fontawesome - https://fontawesome.com License - https://fontawesome.com/license (Commercial License) Copyright 2023 Fonticons, Inc. --><path d="M72 112v48h48V112H72zM24 64H72h48 48v48 48 48H120 72 24V160 112 64zM72 352v48h48V352H72zM24 304H72h48 48v48 48 48H120 72 24V400 352 304z"/></svg>
